;FLAVOR:Marlin
;TIME:14117
;Filament used: 5.09883m
;Layer height: 0.12
;MINX:20.299
;MINY:22.909
;MINZ:0.12
;MAXX:103.816
;MAXY:116.481
;MAXZ:9.48
;Generated with Cura_SteamEngine 4.5.0
M104 S228
M105
M109 S228
M82 ;absolute extrusion mode
M201 X500.00 Y500.00 Z100.00 E5000.00 ;Setup machine max acceleration
M203 X500.00 Y500.00 Z10.00 E50.00 ;Setup machine max feedrate
M204 P500.00 R1000.00 T500.00 ;Setup Print/Retract/Travel acceleration
M205 X8.00 Y8.00 Z0.40 E5.00 ;Setup Jerk
M220 S100 ;Reset Feedrate
M221 S100 ;Reset Flowrate

G28 ;Home
M420 S1 Z2 ;Enable ABL using saved Mesh and Fade Height

G92 E0 ;Reset Extruder
G1 Z2.0 F3000 ;Move Z Axis up
G1 X10.1 Y20 Z0.28 F5000.0 ;Move to start position
G1 X10.1 Y200.0 Z0.28 F1500.0 E15 ;Draw the first line
G1 X10.4 Y200.0 Z0.28 F5000.0 ;Move to side a little
G1 X10.4 Y20 Z0.28 F1500.0 E30 ;Draw the second line
G92 E0 ;Reset Extruder
G1 Z2.0 F3000 ;Move Z Axis up

G92 E0
G92 E0
G1 F1500 E-8
;LAYER_COUNT:79
;LAYER:0
M107
G0 F6000 X24.267 Y26.159 Z0.12
;TYPE:SKIRT
G1 F1500 E0
G1 F1200 X24.975 Y25.544 E0.01872
G1 X25.733 Y24.992 E0.03743
G1 X26.73 Y24.401 E0.06056
G1 X27.032 Y24.243 E0.06736
G1 X27.881 Y23.844 E0.08608
G1 X28.76 Y23.519 E0.10478
G1 X29.661 Y23.271 E0.12343
G1 X29.904 Y23.215 E0.12841
G1 X30.826 Y23.043 E0.14712
G1 X32.052 Y22.939 E0.17168
G1 X33.227 Y22.909 E0.19513
G1 X76.876 Y22.911 E1.0662
G1 X78.48 Y22.934 E1.09821
G1 X79.72 Y22.969 E1.12296
G1 X82.243 Y22.969 E1.17331
G1 X84.272 Y22.917 E1.21382
G1 X85.009 Y22.909 E1.22853
G1 X90.882 Y22.91 E1.34573
G1 X91.746 Y22.921 E1.36297
G1 X92.682 Y22.974 E1.38168
G1 X93.295 Y23.053 E1.39402
G1 X93.633 Y23.106 E1.40084
G1 X94.553 Y23.29 E1.41957
G1 X95.453 Y23.553 E1.43828
G1 X96.328 Y23.891 E1.457
G1 X96.91 Y24.165 E1.46983
G1 X97.294 Y24.36 E1.47843
G1 X98.111 Y24.82 E1.49714
G1 X98.886 Y25.348 E1.51585
G1 X99.614 Y25.94 E1.53458
G1 X100.19 Y26.49 E1.55047
G1 X100.422 Y26.728 E1.5571
G1 X101.047 Y27.427 E1.57582
G1 X101.616 Y28.183 E1.5947
G1 X101.734 Y28.355 E1.59886
G1 X102.231 Y29.15 E1.61757
G1 X102.831 Y30.382 E1.64492
G1 X102.916 Y30.588 E1.64937
G1 X103.237 Y31.47 E1.6681
G1 X103.502 Y32.472 E1.68878
G1 X103.545 Y32.672 E1.69286
G1 X103.703 Y33.596 E1.71157
G1 X103.777 Y34.428 E1.72824
G1 X103.798 Y34.843 E1.73653
G1 X103.812 Y35.364 E1.74693
G1 X103.816 Y36.608 E1.77176
G1 X103.816 Y91.679 E2.87076
G1 X103.814 Y103.661 E3.10987
G1 X103.804 Y104.395 E3.12452
G1 X103.746 Y105.386 E3.14433
G1 X103.724 Y105.597 E3.14857
G1 X103.587 Y106.525 E3.16729
G1 X103.348 Y107.519 E3.18769
G1 X103.279 Y107.757 E3.19263
G1 X102.98 Y108.646 E3.21135
G1 X102.606 Y109.506 E3.23006
G1 X102.379 Y109.947 E3.23996
G1 X102.229 Y110.223 E3.24623
G1 X101.746 Y111.027 E3.26495
G1 X101.197 Y111.787 E3.28366
G1 X100.82 Y112.239 E3.2954
G1 X100.68 Y112.398 E3.29963
G1 X100.031 Y113.075 E3.31835
G1 X99.326 Y113.694 E3.33707
G1 X98.746 Y114.131 E3.35156
G1 X98.447 Y114.341 E3.35885
G1 X97.657 Y114.846 E3.37756
G1 X96.827 Y115.283 E3.39628
G1 X96.154 Y115.575 E3.41092
G1 X95.966 Y115.649 E3.41496
G1 X95.079 Y115.955 E3.43368
G1 X94.17 Y116.184 E3.45239
G1 X93.613 Y116.285 E3.46368
G1 X93.347 Y116.326 E3.46906
G1 X92.017 Y116.449 E3.49571
G1 X91.159 Y116.476 E3.51284
G1 X90.813 Y116.481 E3.51975
G1 X35.871 Y116.481 E4.61617
G1 X33.061 Y116.479 E4.67225
G1 X32.395 Y116.47 E4.68554
G1 X31.459 Y116.417 E4.70425
G1 X30.599 Y116.298 E4.72158
G1 X30.187 Y116.224 E4.72993
G1 X29.272 Y116.019 E4.74864
G1 X28.378 Y115.737 E4.76735
G1 X27.511 Y115.379 E4.78607
G1 X26.969 Y115.11 E4.79814
G1 X26.636 Y114.933 E4.80567
G1 X25.828 Y114.458 E4.82437
G1 X25.062 Y113.916 E4.8431
G1 X24.192 Y113.165 E4.86604
G1 X24.004 Y112.985 E4.87123
G1 X23.355 Y112.308 E4.88995
G1 X22.518 Y111.23 E4.91718
G1 X22.356 Y110.992 E4.92293
G1 X21.861 Y110.194 E4.94167
G1 X21.437 Y109.358 E4.96037
G1 X20.981 Y108.181 E4.98556
G1 X20.859 Y107.803 E4.99349
G1 X20.609 Y106.899 E5.01221
G1 X20.437 Y105.977 E5.03092
G1 X20.332 Y104.763 E5.05524
G1 X20.304 Y103.856 E5.07335
G1 X20.299 Y103.517 E5.08012
G1 X20.3 Y48.504 E6.17796
G1 X20.299 Y47.883 E6.19035
G1 X20.301 Y35.693 E6.43362
G1 X20.311 Y34.983 E6.44779
G1 X20.364 Y34.047 E6.4665
G1 X20.442 Y33.437 E6.47877
G1 X20.496 Y33.092 E6.48574
G1 X20.681 Y32.172 E6.50446
G1 X20.943 Y31.272 E6.52317
G1 X21.144 Y30.726 E6.53478
G1 X21.222 Y30.53 E6.53899
G1 X21.605 Y29.674 E6.5577
G1 X22.06 Y28.854 E6.57642
G1 X22.58 Y28.081 E6.59501
G1 X22.78 Y27.809 E6.60175
G1 X23.367 Y27.077 E6.62047
G1 X24.08 Y26.336 E6.64099
G1 X24.267 Y26.159 E6.64613
G0 F6000 X24.542 Y26.45
G1 F1200 X25.238 Y25.846 E6.66452
G1 X25.983 Y25.306 E6.68288
G1 X26.915 Y24.756 E6.70448
G1 X27.217 Y24.598 E6.71128
G1 X28.051 Y24.207 E6.72966
G1 X28.915 Y23.89 E6.74803
G1 X29.751 Y23.661 E6.76533
G1 X29.994 Y23.605 E6.7703
G1 X30.899 Y23.437 E6.78867
G1 X32.063 Y23.339 E6.81198
G1 X33.227 Y23.309 E6.83522
G1 X76.871 Y23.311 E7.70618
G1 X78.469 Y23.334 E7.73808
G1 X79.709 Y23.369 E7.76283
G1 X82.253 Y23.369 E7.8136
G1 X84.277 Y23.317 E7.85401
G1 X85.009 Y23.309 E7.86861
G1 X90.882 Y23.31 E7.98582
G1 X91.74 Y23.321 E8.00294
G1 X92.659 Y23.374 E8.02131
G1 X93.233 Y23.448 E8.03286
G1 X93.571 Y23.501 E8.03969
G1 X94.474 Y23.683 E8.05807
G1 X95.357 Y23.943 E8.07644
G1 X96.214 Y24.278 E8.0948
G1 X96.728 Y24.522 E8.10616
G1 X97.112 Y24.717 E8.11475
G1 X97.914 Y25.169 E8.13312
G1 X98.674 Y25.689 E8.1515
G1 X99.386 Y26.273 E8.16988
G1 X99.903 Y26.769 E8.18417
G1 X100.135 Y27.007 E8.19081
G1 X100.749 Y27.693 E8.20918
G1 X101.286 Y28.409 E8.22704
G1 X101.404 Y28.581 E8.2312
G1 X101.891 Y29.362 E8.24957
G1 X102.462 Y30.535 E8.2756
G1 X102.547 Y30.741 E8.28005
G1 X102.861 Y31.606 E8.29842
G1 X103.111 Y32.556 E8.31802
G1 X103.154 Y32.756 E8.3221
G1 X103.308 Y33.664 E8.34048
G1 X103.377 Y34.448 E8.35619
G1 X103.398 Y34.863 E8.36448
G1 X103.412 Y35.365 E8.3745
G1 X103.416 Y36.609 E8.39933
G1 X103.416 Y91.679 E9.49831
G1 X103.414 Y103.655 E9.7373
G1 X103.404 Y104.389 E9.75195
G1 X103.348 Y105.344 E9.77104
G1 X103.326 Y105.555 E9.77528
G1 X103.191 Y106.466 E9.79365
G1 X102.964 Y107.408 E9.81299
G1 X102.895 Y107.646 E9.81794
G1 X102.6 Y108.518 E9.83631
G1 X102.027 Y109.756 E9.86353
G1 X101.877 Y110.032 E9.8698
G1 X101.403 Y110.821 E9.88817
G1 X100.862 Y111.566 E9.90654
G1 X100.52 Y111.975 E9.91718
G1 X100.38 Y112.134 E9.92141
G1 X99.742 Y112.798 E9.93978
G1 X99.049 Y113.404 E9.95816
G1 X98.516 Y113.803 E9.97144
G1 X98.217 Y114.013 E9.97873
G1 X97.442 Y114.509 E9.9971
G1 X96.626 Y114.936 E10.01547
G1 X96.007 Y115.202 E10.02892
G1 X95.819 Y115.276 E10.03295
G1 X94.949 Y115.576 E10.05132
G1 X94.056 Y115.799 E10.06968
G1 X93.552 Y115.889 E10.0799
G1 X93.286 Y115.93 E10.08527
G1 X92.004 Y116.049 E10.11097
G1 X91.146 Y116.076 E10.1281
G1 X90.813 Y116.081 E10.13474
G1 X35.871 Y116.081 E11.23117
G1 X33.067 Y116.079 E11.28713
G1 X32.401 Y116.07 E11.30042
G1 X31.482 Y116.018 E11.31879
G1 X30.67 Y115.904 E11.33515
G1 X30.258 Y115.83 E11.34351
G1 X29.36 Y115.628 E11.36187
G1 X28.483 Y115.349 E11.38024
G1 X27.633 Y114.995 E11.39861
G1 X27.157 Y114.757 E11.40923
G1 X26.824 Y114.58 E11.41676
G1 X26.03 Y114.113 E11.43514
G1 X25.281 Y113.579 E11.4535
G1 X24.468 Y112.876 E11.47495
G1 X24.28 Y112.696 E11.48014
G1 X23.644 Y112.031 E11.49851
G1 X22.848 Y111.005 E11.52442
G1 X22.686 Y110.767 E11.53017
G1 X22.202 Y109.984 E11.54854
G1 X21.787 Y109.162 E11.56691
G1 X21.361 Y108.058 E11.59053
G1 X21.239 Y107.68 E11.59845
G1 X20.995 Y106.792 E11.61683
G1 X20.828 Y105.887 E11.6352
G1 X20.732 Y104.751 E11.65795
G1 X20.704 Y103.844 E11.67606
G1 X20.699 Y103.517 E11.68258
G1 X20.7 Y48.504 E12.78043
G1 X20.699 Y47.883 E12.79282
G1 X20.701 Y35.699 E13.03596
G1 X20.711 Y34.989 E13.05013
G1 X20.764 Y34.07 E13.0685
G1 X20.838 Y33.499 E13.07999
G1 X20.892 Y33.154 E13.08696
G1 X21.073 Y32.251 E13.10534
G1 X21.333 Y31.368 E13.12371
G1 X21.515 Y30.874 E13.13422
G1 X21.593 Y30.678 E13.13843
G1 X21.97 Y29.838 E13.1568
G1 X22.419 Y29.034 E13.17518
G1 X22.902 Y28.318 E13.19241
G1 X23.102 Y28.046 E13.19915
G1 X23.679 Y27.328 E13.21753
G1 X24.355 Y26.627 E13.23697
G1 X24.542 Y26.45 E13.2421
G0 F6000 X24.817 Y26.74
G1 F1200 X25.5 Y26.149 E13.26013
G1 X26.232 Y25.621 E13.27814
G1 X27.101 Y25.11 E13.29826
G1 X27.403 Y24.952 E13.30506
G1 X28.221 Y24.569 E13.32309
G1 X29.069 Y24.26 E13.3411
G1 X29.84 Y24.051 E13.35704
G1 X30.083 Y23.995 E13.36201
G1 X30.972 Y23.831 E13.38005
G1 X32.075 Y23.738 E13.40214
G1 X33.227 Y23.709 E13.42514
G1 X76.865 Y23.711 E14.29598
G1 X78.458 Y23.734 E14.32778
G1 X79.698 Y23.769 E14.35253
G1 X82.264 Y23.769 E14.40374
G1 X84.282 Y23.717 E14.44403
G1 X85.009 Y23.709 E14.45853
G1 X90.882 Y23.71 E14.57574
G1 X91.734 Y23.721 E14.59274
G1 X92.636 Y23.774 E14.61077
G1 X93.171 Y23.843 E14.62154
G1 X93.509 Y23.896 E14.62836
G1 X94.394 Y24.075 E14.64638
G1 X95.26 Y24.332 E14.66441
G1 X96.1 Y24.665 E14.68244
G1 X96.547 Y24.878 E14.69232
G1 X96.931 Y25.073 E14.70092
G1 X97.718 Y25.518 E14.71896
G1 X98.462 Y26.03 E14.73698
G1 X99.157 Y26.605 E14.75498
G1 X99.617 Y27.048 E14.76773
G1 X99.849 Y27.286 E14.77436
G1 X100.45 Y27.96 E14.79238
G1 X100.956 Y28.636 E14.80923
G1 X101.074 Y28.808 E14.8134
G1 X101.551 Y29.574 E14.8314
G1 X102.092 Y30.687 E14.8561
G1 X102.177 Y30.893 E14.86055
G1 X102.484 Y31.743 E14.87858
G1 X102.72 Y32.64 E14.89709
G1 X102.763 Y32.84 E14.90117
G1 X102.914 Y33.73 E14.91919
G1 X102.978 Y34.469 E14.93399
G1 X102.999 Y34.884 E14.94228
G1 X103.012 Y35.366 E14.95191
G1 X103.016 Y36.61 E14.97673
G1 X103.016 Y91.679 E16.07569
G1 X103.014 Y103.65 E16.31459
G1 X103.004 Y104.384 E16.32924
G1 X102.95 Y105.303 E16.34761
G1 X102.928 Y105.514 E16.35184
G1 X102.795 Y106.407 E16.36986
G1 X102.58 Y107.296 E16.38811
G1 X102.511 Y107.534 E16.39306
G1 X102.221 Y108.39 E16.41109
G1 X101.676 Y109.565 E16.43694
G1 X101.526 Y109.841 E16.44321
G1 X101.06 Y110.614 E16.46122
G1 X100.527 Y111.344 E16.47926
G1 X100.219 Y111.711 E16.48882
G1 X100.079 Y111.87 E16.49305
G1 X99.453 Y112.52 E16.51106
G1 X98.772 Y113.113 E16.52908
G1 X98.286 Y113.476 E16.54118
G1 X97.987 Y113.686 E16.54848
G1 X97.226 Y114.172 E16.56649
G1 X96.425 Y114.588 E16.58451
G1 X95.861 Y114.83 E16.59675
G1 X95.673 Y114.904 E16.60079
G1 X94.819 Y115.197 E16.6188
G1 X93.942 Y115.414 E16.63683
G1 X93.491 Y115.494 E16.64597
G1 X93.225 Y115.535 E16.65134
G1 X91.992 Y115.649 E16.67606
G1 X91.134 Y115.676 E16.69319
G1 X90.813 Y115.681 E16.69959
G1 X35.871 Y115.681 E17.79602
G1 X33.072 Y115.679 E17.85188
G1 X32.406 Y115.67 E17.86517
G1 X31.505 Y115.618 E17.88318
G1 X30.741 Y115.51 E17.89858
G1 X30.329 Y115.436 E17.90693
G1 X29.448 Y115.238 E17.92495
G1 X28.588 Y114.962 E17.94298
G1 X27.756 Y114.611 E17.961
G1 X27.345 Y114.404 E17.97018
G1 X27.012 Y114.227 E17.9777
G1 X26.234 Y113.768 E17.99573
G1 X25.499 Y113.242 E18.01377
G1 X24.745 Y112.588 E18.03369
G1 X24.557 Y112.408 E18.03888
G1 X23.933 Y111.755 E18.05691
G1 X23.179 Y110.779 E18.08152
G1 X23.017 Y110.541 E18.08726
G1 X22.542 Y109.773 E18.10528
G1 X22.138 Y108.966 E18.12329
G1 X21.742 Y107.935 E18.14533
G1 X21.62 Y107.557 E18.15326
G1 X21.381 Y106.686 E18.17128
G1 X21.22 Y105.797 E18.18931
G1 X21.132 Y104.739 E18.2105
G1 X21.099 Y103.517 E18.2349
G1 X21.1 Y48.504 E19.33274
G1 X21.099 Y47.882 E19.34515
G1 X21.101 Y35.704 E19.58818
G1 X21.111 Y34.994 E19.60235
G1 X21.164 Y34.093 E19.62036
G1 X21.233 Y33.561 E19.63106
G1 X21.287 Y33.216 E19.63803
G1 X21.466 Y32.33 E19.65607
G1 X21.722 Y31.465 E19.67407
G1 X21.965 Y30.825 E19.68774
G1 X22.336 Y30.002 E19.70575
G1 X22.778 Y29.215 E19.72376
G1 X23.224 Y28.555 E19.73966
G1 X23.424 Y28.283 E19.7464
G1 X23.991 Y27.579 E19.76444
G1 X24.63 Y26.917 E19.7828
G1 X24.817 Y26.74 E19.78794
G1 F1500 E11.78794
;MESH:Corps1.obj
G0 F6000 X58.945 Y48.583
G0 X58.074 Y50.22
G0 X57.692 Y51.431
G0 X57.508 Y55.908
G0 X58.975 Y58.787
G0 X59.93 Y59.597
G0 X62.198 Y59.595
G0 X65.424 Y58.576
G0 X66.006 Y58.173
G0 X66.23 Y57.868
G0 X67.031 Y55.06
;TYPE:WALL-INNER
G1 F1500 E19.78794
G1 F1200 X67.027 Y51.261 E19.86375
G1 X65.639 Y50.411 E19.89623
G1 X65.363 Y50.242 E19.90269
G1 X65.638 Y50.072 E19.90639
G1 X67.021 Y49.219 E19.93882
G1 X67.016 Y45.284 E20.01734
G1 X65.961 Y44.721 E20.04121
G1 X61.886 Y47.423 E20.13878
G1 X58.057 Y44.971 E20.22952
G1 X57.017 Y45.541 E20.25318
G1 X57.021 Y49.416 E20.33051
G1 X58.154 Y50.047 E20.35639
G1 X58.46 Y50.217 E20.36338
G1 X58.156 Y50.392 E20.36733
G1 X57.026 Y51.045 E20.39337
G1 X57.031 Y54.944 E20.47118
G1 X57.561 Y55.229 E20.48319
G1 X57.032 Y55.229 E20.48672
G1 X56.721 Y55.23 E20.49293
G1 X56.719 Y55.231 E20.49297
G1 X56.396 Y55.231 E20.49942
G1 X56.544 Y55.519 E20.50312
G1 X58.569 Y59.453 E20.59141
G1 X59.251 Y59.452 E20.60502
G1 X59.284 Y60.269 E20.62134
G1 X59.785 Y60.269 E20.63134
G1 X60.118 Y60.269 E20.63799
G1 X60.176 Y60.269 E20.63914
G1 X60.118 Y60.337 E20.6397
G1 X59.917 Y60.602 E20.64386
G1 X59.855 Y60.683 E20.6459
G1 X59.618 Y61.058 E20.65475
G1 X59.494 Y61.297 E20.66013
G1 X59.395 Y61.536 E20.66529
G1 X59.32 Y61.771 E20.67021
G1 X59.318 Y61.781 E20.67041
G1 X59.257 Y62.014 E20.67522
G1 X59.186 Y62.44 E20.68384
G1 X59.146 Y62.86 E20.69226
G1 X59.12 Y63.305 E20.70115
G1 X59.143 Y63.717 E20.70939
G1 X59.18 Y64.1 E20.71707
G1 X59.244 Y64.504 E20.72523
G1 X59.356 Y64.915 E20.73373
G1 X59.447 Y65.152 E20.7388
G1 X59.549 Y65.369 E20.74358
G1 X59.745 Y65.712 E20.75147
G1 X59.961 Y66.032 E20.75917
G1 X60.242 Y66.416 E20.76867
G1 X60.578 Y66.696 E20.7774
G1 X60.589 Y66.705 E20.77768
G1 X60.774 Y66.846 E20.78232
G1 X60.865 Y66.916 E20.78461
G1 X60.889 Y66.935 E20.78522
G1 X60.741 Y67.009 E20.78672
G1 X60.594 Y67.082 E20.78892
G1 X60.582 Y67.089 E20.7892
G1 X60.018 Y67.444 E20.80249
G1 X59.625 Y67.942 E20.81515
G1 X59.455 Y68.215 E20.82157
G1 X59.315 Y68.518 E20.82823
G1 X59.226 Y68.827 E20.83465
G1 X59.173 Y69.12 E20.84059
G1 X59.133 Y69.624 E20.85068
G1 X59.144 Y70.002 E20.85823
G1 X59.189 Y70.383 E20.86588
G1 X59.285 Y70.754 E20.87353
G1 X59.427 Y71.149 E20.88191
G1 X59.66 Y71.533 E20.89087
G1 X59.698 Y71.585 E20.89216
G1 X59.519 Y71.823 E20.8981
G1 X59.342 Y72.223 E20.90683
G1 X59.266 Y72.437 E20.91136
G1 X59.205 Y72.675 E20.91626
G1 X59.154 Y73.055 E20.92392
G1 X59.139 Y73.429 E20.93139
G1 X59.154 Y73.796 E20.93872
G1 X59.201 Y74.186 E20.94655
G1 X59.283 Y74.484 E20.95272
G1 X59.27 Y74.485
G1 X59.278 Y78.52 E21.03325
G1 X60.108 Y78.519 E21.04981
G1 X60.497 Y78.519 E21.05757
G1 X60.555 Y78.518 E21.05873
G1 X60.498 Y78.557 E21.05896
G1 X60.247 Y78.854 E21.06353
G1 X60.151 Y78.967 E21.06649
G1 X59.888 Y79.313 E21.07516
G1 X59.65 Y79.688 E21.08402
G1 X59.526 Y79.928 E21.08941
G1 X59.428 Y80.167 E21.09457
G1 X59.353 Y80.399 E21.09943
G1 X59.351 Y80.41 E21.09966
G1 X59.289 Y80.645 E21.10451
G1 X59.219 Y81.07 E21.1131
G1 X59.179 Y81.49 E21.12152
G1 X59.153 Y81.932 E21.13036
G1 X59.174 Y82.347 E21.13865
G1 X59.212 Y82.732 E21.14637
G1 X59.279 Y83.136 E21.15454
G1 X59.389 Y83.546 E21.16302
G1 X59.478 Y83.779 E21.16799
G1 X59.578 Y83.996 E21.17276
G1 X59.777 Y84.344 E21.18076
G1 X59.994 Y84.663 E21.18846
G1 X60.243 Y85.004 E21.19689
G1 X60.274 Y85.046 E21.19793
G1 X60.422 Y85.169 E21.20177
G1 X60.575 Y85.297 E21.20575
G1 X60.341 Y85.348 E21.20756
G1 X60.258 Y85.367 E21.20828
G1 X60.208 Y85.383 E21.20932
G1 X59.844 Y85.502 E21.21697
G1 X59.621 Y85.587 E21.22173
G1 X59.401 Y85.686 E21.22654
G1 X59.183 Y85.803 E21.23148
G1 X58.985 Y85.926 E21.23613
G1 X58.613 Y86.179 E21.24511
G1 X58.279 Y86.489 E21.2542
G1 X58.11 Y86.663 E21.25904
G1 X57.947 Y86.859 E21.26413
G1 X57.802 Y87.067 E21.26919
G1 X57.68 Y87.27 E21.27392
G1 X57.465 Y87.678 E21.28312
G1 X57.293 Y88.211 E21.2943
G1 X57.22 Y88.487 E21.3
G1 X57.163 Y88.771 E21.30578
G1 X57.162 Y88.787 E21.3061
G1 X57.129 Y89.053 E21.31144
G1 X57.107 Y89.321 E21.31681
G1 X57.094 Y89.804 E21.32645
G1 X57.101 Y94.308 E21.41634
G1 X57.101 Y94.507 E21.42031
G1 X57.3 Y94.507 E21.42288
G1 X67.101 Y94.489 E21.61847
G1 X67.093 Y89.79 E21.71224
G1 X67.07 Y89.374 E21.72055
G1 X67.022 Y88.938 E21.72931
G1 X66.94 Y88.511 E21.73798
G1 X66.836 Y88.07 E21.74703
G1 X66.694 Y87.685 E21.75522
G1 X66.604 Y87.468 E21.7599
G1 X66.49 Y87.255 E21.76473
G1 X66.367 Y87.059 E21.76934
G1 X66.235 Y86.878 E21.77381
